app/src/assets/icons/website/growth.svg

<svg xmlns="http://www.w3.org/2000/svg" viewBox="0 0 24 24" width="512" height="512"><g data-name="Statistic Grow"><path d="M23 22h-1V9a1 1 0 00-1-1h-4a1 1 0 00-1 1v13h-1v-9a1 1 0 00-1-1h-4a1 1 0 00-1 1v9H8v-6a1 1 0 00-1-1H3a1 1 0 00-1 1v6H1a1 1 0 000 2h22a1 1 0 000-2zM4 22v-5h2v5zm7 0v-8h2v8zm7 0V10h2v12zM4 11c6.009 0 11.339-4.604 14-7.366V5a1 1 0 002 0V1a1.023 1.023 0 00-1-1h-4a1 1 0 000 2h1.784C14.422 4.492 9.405 9 4 9a1 1 0 000 2z"/></g></svg>

<?xml version="1.0"?>
<svg xmlns="http://www.w3.org/2000/svg" viewBox="0 0 24 24" width="512" height="512"><g id="Statistic_Grow" data-name="Statistic Grow"><path d="M23,22H22V9a1,1,0,0,0-1-1H17a1,1,0,0,0-1,1V22H15V13a1,1,0,0,0-1-1H10a1,1,0,0,0-1,1v9H8V16a1,1,0,0,0-1-1H3a1,1,0,0,0-1,1v6H1a1,1,0,0,0,0,2H23a1,1,0,0,0,0-2ZM4,22V17H6v5Zm7,0V14h2v8Zm7,0V10h2V22Z"/><path d="M4,11c6.0086,0,11.3387-4.6041,14-7.3664V5a1,1,0,0,0,2,0V1a1.0229,1.0229,0,0,0-1-1H15a1,1,0,0,0,0,2h1.7845C14.4209,4.4921,9.4042,9,4,9a1,1,0,0,0,0,2Z"/></g></svg>
